img/icon/googlePlay.svg

<svg width="121" height="36" viewBox="0 0 121 36" fill="none" xmlns="http://www.w3.org/2000/svg">
<g clip-path="url(#clip0_0_86)">
<path d="M0 4.8C0 2.14903 2.14125 0 4.78261 0H116.217C118.859 0 121 2.14903 121 4.8V31.2C121 33.851 118.859 36 116.217 36H4.78261C2.14125 36 0 33.851 0 31.2V4.8Z" fill="black"/>
<path fill-rule="evenodd" clip-rule="evenodd" d="M0 31.2V4.8C0 2.14903 2.14125 0 4.78261 0H116.217C118.859 0 121 2.14903 121 4.8V31.2C121 33.851 118.859 36 116.217 36H4.78261C2.14125 36 0 33.851 0 31.2ZM0.717391 31.2V4.8C0.717391 2.54669 2.53746 0.72 4.78261 0.72H116.217C118.463 0.72 120.283 2.54669 120.283 4.8V31.2C120.283 33.4534 118.463 35.28 116.217 35.28H4.78261C2.53746 35.28 0.717391 33.4534 0.717391 31.2Z" fill="white" fill-opacity="0.3"/>
<path d="M61.3097 19.5576C59.1563 19.5576 57.3772 21.2453 57.3772 23.5594C57.3772 25.8546 59.1377 27.5612 61.3097 27.5612C63.4817 27.5612 65.2419 25.8733 65.2419 23.5594C65.2419 21.2453 63.4817 19.5576 61.3097 19.5576ZM61.3097 25.9688C60.1296 25.9688 59.1004 24.9632 59.1004 23.5415C59.1004 22.1001 60.1303 21.1143 61.3097 21.1143C62.4888 21.1143 63.5188 22.1001 63.5188 23.5415C63.5188 24.9632 62.4888 25.9688 61.3097 25.9688ZM52.7519 19.5576C50.5799 19.5576 48.8194 21.2453 48.8194 23.5594C48.8194 25.8546 50.5799 27.5612 52.7519 27.5612C54.9239 27.5612 56.6844 25.8733 56.6844 23.5594C56.6844 21.2453 54.9242 19.5576 52.7519 19.5576ZM52.7519 25.9688C51.5718 25.9688 50.5428 24.9632 50.5428 23.5415C50.5428 22.1001 51.5728 21.1143 52.7519 21.1143C53.932 21.1143 54.9613 22.1001 54.9613 23.5415C54.9613 24.9632 53.9495 25.9688 52.7519 25.9688ZM42.5839 20.7905V22.4783H46.5534C46.4406 23.4265 46.1232 24.1283 45.6548 24.6028C45.0744 25.1905 44.1755 25.8356 42.5839 25.8356C40.1304 25.8356 38.2398 23.8254 38.2398 21.3406C38.2398 18.8559 40.1313 16.8076 42.5839 16.8076C43.9129 16.8076 44.8685 17.3388 45.5802 18.0219L46.7593 16.8265C45.7664 15.8596 44.4374 15.1201 42.5839 15.1201C39.2315 15.1201 36.4224 17.9077 36.4224 21.3029C36.4224 24.6983 39.2315 27.4859 42.5839 27.4859C44.4001 27.4859 45.7488 26.8792 46.8346 25.7406C47.9394 24.6217 48.2764 23.0471 48.2764 21.7765C48.2764 21.3784 48.2393 21.0179 48.1826 20.7143L42.5839 20.7905ZM84.1923 22.0991C83.8738 21.2075 82.8632 19.5576 80.8399 19.5576C78.8171 19.5576 77.1509 21.1699 77.1509 23.5594C77.1509 25.797 78.8171 27.5612 81.0274 27.5612C82.825 27.5612 83.8551 26.4424 84.2853 25.797L82.9565 24.8867C82.5064 25.551 81.9077 25.9866 81.0274 25.9866C80.1472 25.9866 79.5298 25.5884 79.1357 24.7727L84.3602 22.5539L84.1923 22.0991ZM78.8741 23.4462C78.8368 21.9095 80.0542 21.1132 80.9146 21.1132C81.6078 21.1132 82.1695 21.4547 82.3752 21.967L78.8741 23.4462ZM74.623 27.296H76.3462V15.5747H74.623V27.296ZM71.8149 20.4491H71.759C71.3658 19.9746 70.6358 19.5576 69.6989 19.5576C67.7325 19.5576 65.9536 21.3217 65.9536 23.5594C65.9536 25.797 67.7511 27.5425 69.6989 27.5425C70.6348 27.5425 71.3651 27.1252 71.759 26.632H71.8149V27.2008C71.8149 28.7377 71.0093 29.5525 69.7175 29.5525C68.6687 29.5525 68.013 28.7752 67.7511 28.13L66.2537 28.7752C66.6837 29.8374 67.8267 31.1459 69.7175 31.1459C71.7396 31.1459 73.4439 29.932 73.4439 26.9924V19.8039H71.8149V20.4491ZM69.8488 25.9688C68.6687 25.9688 67.6768 24.9632 67.6768 23.5604C67.6768 22.1576 68.6696 21.133 69.8488 21.133C71.0103 21.133 71.9462 22.1576 71.9462 23.5604C71.9455 24.9443 71.0093 25.9688 69.8488 25.9688ZM92.2257 15.5749H88.1062V27.296H89.8291V22.8575H92.2257C94.1361 22.8575 96.0082 21.4536 96.0082 19.2162C96.0082 16.9786 94.1361 15.5749 92.2257 15.5749ZM92.2814 21.2275H89.8468V17.2057H92.2814C93.5547 17.2057 94.3037 18.2869 94.3037 19.216C94.2858 20.1264 93.5557 21.2275 92.2814 21.2275ZM102.881 19.5387C101.645 19.5387 100.353 20.0888 99.8286 21.3406L101.346 21.9859C101.683 21.3406 102.282 21.1321 102.919 21.1321C103.818 21.1321 104.717 21.6821 104.735 22.649V22.7632C104.417 22.5736 103.762 22.3075 102.938 22.3075C101.29 22.3075 99.6227 23.2369 99.6227 24.9443C99.6227 26.5187 100.971 27.5236 102.469 27.5236C103.631 27.5236 104.267 26.9924 104.66 26.3668H104.716V27.2773H106.382V22.7819C106.364 20.7149 104.847 19.5387 102.881 19.5387ZM102.675 25.9499C102.113 25.9499 101.326 25.665 101.326 24.964C101.326 24.0536 102.3 23.7122 103.143 23.7122C103.891 23.7122 104.247 23.8829 104.716 24.1103C104.585 25.1915 103.667 25.9499 102.675 25.9499ZM112.393 19.8049L110.427 24.8687H110.371L108.331 19.8047H106.477L109.548 26.8979L107.806 30.862H109.604L114.303 19.8047H112.393L112.393 19.8049ZM96.9636 27.296H98.6867V15.5747H96.9636V27.296Z" fill="white"/>
<path d="M41.6288 10.081V11.8215H40.9124V10.8H37.6181V11.8215H36.9017V10.081H37.4373C37.616 9.83013 37.7477 9.46949 37.8324 8.99908C37.9173 8.5242 37.9596 8.00901 37.9596 7.45349V5.98853H41.0998V10.081H41.6288ZM40.3499 10.081V6.70757H38.7028V7.58117C38.7028 8.08293 38.6626 8.54885 38.5823 8.97892C38.5065 9.40901 38.3905 9.77637 38.2341 10.081H40.3499Z" fill="white"/>
<path d="M44.6691 10.9074C44.2047 10.9074 43.7829 10.7977 43.4036 10.5781C43.0241 10.3541 42.725 10.0495 42.5062 9.66422C42.2919 9.27895 42.185 8.85559 42.185 8.39414C42.185 7.93269 42.2919 7.51159 42.5062 7.13078C42.725 6.74551 43.0241 6.44085 43.4036 6.21686C43.7829 5.99287 44.2047 5.88086 44.6691 5.88086C45.1332 5.88086 45.5529 5.99287 45.9279 6.21686C46.3071 6.44085 46.6063 6.74551 46.8248 7.13078C47.0437 7.51159 47.1532 7.93269 47.1532 8.39414C47.1532 8.85559 47.0437 9.27895 46.8248 9.66422C46.6106 10.0495 46.3138 10.3541 45.9346 10.5781C45.5551 10.7977 45.1332 10.9074 44.6691 10.9074ZM44.6691 10.1884C44.9859 10.1884 45.276 10.1122 45.5395 9.9599C45.8028 9.80757 46.0104 9.59702 46.1622 9.32822C46.3138 9.05493 46.3896 8.74358 46.3896 8.39414C46.3896 8.0447 46.3138 7.73558 46.1622 7.46678C46.0104 7.19349 45.8028 6.98071 45.5395 6.82838C45.276 6.67605 44.9859 6.5999 44.6691 6.5999C44.352 6.5999 44.0619 6.67605 43.7984 6.82838C43.5351 6.98071 43.3254 7.19349 43.169 7.46678C43.0174 7.73558 42.9414 8.0447 42.9414 8.39414C42.9414 8.74358 43.0174 9.05493 43.169 9.32822C43.3254 9.59702 43.5351 9.80757 43.7984 9.9599C44.0619 10.1122 44.352 10.1884 44.6691 10.1884Z" fill="white"/>
<path d="M50.2078 10.9074C49.7435 10.9074 49.3195 10.7977 48.9357 10.5781C48.5516 10.3586 48.2503 10.0562 48.0318 9.67094C47.813 9.28567 47.7037 8.86005 47.7037 8.39414C47.7037 7.92823 47.813 7.50261 48.0318 7.11734C48.2503 6.73207 48.5516 6.42967 48.9357 6.21014C49.3195 5.99061 49.7435 5.88086 50.2078 5.88086C50.5694 5.88086 50.8975 5.94806 51.1921 6.08246C51.491 6.21686 51.7545 6.41174 51.9822 6.6671L51.4465 7.18454C51.2813 6.98743 51.0984 6.84182 50.8975 6.74774C50.6966 6.64917 50.4666 6.5999 50.2078 6.5999C49.8865 6.5999 49.5918 6.67382 49.324 6.82166C49.0605 6.9695 48.8508 7.18005 48.6946 7.45334C48.5382 7.72214 48.4603 8.03575 48.4603 8.39414C48.4603 8.75253 48.5382 9.06837 48.6946 9.34166C48.8508 9.61046 49.0605 9.81878 49.324 9.96662C49.5918 10.1145 49.8865 10.1884 50.2078 10.1884C50.7435 10.1884 51.1988 9.96439 51.5738 9.51638L52.1161 10.0405C51.8839 10.3138 51.6048 10.5266 51.2792 10.6789C50.9532 10.8313 50.5962 10.9074 50.2078 10.9074Z" fill="white"/>
<path d="M53.9242 6.70757H52.585V5.98853H56.0132V6.70757H54.6741V10.8H53.9242V6.70757Z" fill="white"/>
<path d="M57.2548 10.9076C57.0895 10.9076 56.9489 10.8785 56.8329 10.8202V10.0877C56.9802 10.1684 57.1142 10.2087 57.2347 10.2087C57.3552 10.2087 57.4511 10.1863 57.5226 10.1415C57.5941 10.0922 57.6587 10.0026 57.7168 9.87269L57.8842 9.52325L56.2906 5.98853H57.1275L58.2457 8.65637H58.2859L59.4108 5.98853H60.2477L58.4131 10.034C58.2792 10.3341 58.1163 10.5559 57.9243 10.6992C57.7368 10.8381 57.5137 10.9076 57.2548 10.9076Z" fill="white"/>
<path d="M60.8979 5.98853H64.4667V10.8H63.7168V6.70757H61.6478V10.8H60.8979V5.98853Z" fill="white"/>
<path d="M65.56 5.98853H66.3099V7.98436H68.5329V5.98853H69.2761V10.8H68.5329V8.69669H66.3099V10.8H65.56V5.98853Z" fill="white"/>
<path d="M72.55 10.9074C72.0859 10.9074 71.664 10.7977 71.2845 10.5781C70.9053 10.3541 70.6061 10.0495 70.3873 9.66422C70.173 9.27895 70.0659 8.85559 70.0659 8.39414C70.0659 7.93269 70.173 7.51159 70.3873 7.13078C70.6061 6.74551 70.9053 6.44085 71.2845 6.21686C71.664 5.99287 72.0859 5.88086 72.55 5.88086C73.0144 5.88086 73.4338 5.99287 73.8088 6.21686C74.1883 6.44085 74.4874 6.74551 74.706 7.13078C74.9248 7.51159 75.0341 7.93269 75.0341 8.39414C75.0341 8.85559 74.9248 9.27895 74.706 9.66422C74.4917 10.0495 74.195 10.3541 73.8155 10.5781C73.4362 10.7977 73.0144 10.9074 72.55 10.9074ZM72.55 10.1884C72.8671 10.1884 73.1572 10.1122 73.4204 9.9599C73.684 9.80757 73.8915 9.59702 74.0431 9.32822C74.195 9.05493 74.2708 8.74358 74.2708 8.39414C74.2708 8.0447 74.195 7.73558 74.0431 7.46678C73.8915 7.19349 73.684 6.98071 73.4204 6.82838C73.1572 6.67605 72.8671 6.5999 72.55 6.5999C72.2332 6.5999 71.9431 6.67605 71.6796 6.82838C71.4163 6.98071 71.2066 7.19349 71.0502 7.46678C70.8986 7.73558 70.8225 8.0447 70.8225 8.39414C70.8225 8.74358 70.8986 9.05493 71.0502 9.32822C71.2066 9.59702 71.4163 9.80757 71.6796 9.9599C71.9431 10.1122 72.2332 10.1884 72.55 10.1884Z" fill="white"/>
<path d="M77.4603 5.98853H79.2615C79.5159 5.98853 79.7502 6.04452 79.9645 6.15653C80.1833 6.26853 80.3574 6.42309 80.4868 6.62021C80.6164 6.81732 80.6809 7.03461 80.6809 7.27205C80.6809 7.50948 80.6207 7.71557 80.5002 7.89029C80.3842 8.06501 80.2302 8.19717 80.0382 8.28677V8.32709C80.2792 8.41221 80.4734 8.55333 80.6207 8.75045C80.7725 8.94756 80.8483 9.17829 80.8483 9.44261C80.8483 9.70692 80.7792 9.94212 80.6408 10.1482C80.5069 10.3543 80.3239 10.5156 80.0917 10.632C79.8641 10.7441 79.6142 10.8 79.3418 10.8H77.4603V5.98853ZM79.228 8.00452C79.4422 8.00452 79.6142 7.93733 79.7435 7.80293C79.8775 7.66853 79.9444 7.51397 79.9444 7.33925C79.9444 7.16453 79.8799 7.0122 79.7502 6.88229C79.6254 6.74789 79.4602 6.68069 79.2548 6.68069H78.2102V8.00452H79.228ZM79.3418 10.1012C79.5695 10.1012 79.7502 10.0295 79.8842 9.88612C80.0226 9.74277 80.0917 9.57701 80.0917 9.38885C80.0917 9.1962 80.0205 9.03045 79.8775 8.89157C79.7392 8.74821 79.5518 8.67653 79.315 8.67653H78.2102V10.1012H79.3418Z" fill="white"/>
<path d="M25.5133 21.8599C28.3783 20.2664 30.5503 19.0524 30.7376 18.9581C31.3363 18.6354 31.955 17.7817 30.7376 17.1186C30.3444 16.9101 28.2284 15.7336 25.5133 14.2168L21.7496 18.0666L25.5133 21.8599Z" fill="#FFD900"/>
<path d="M21.7495 18.0667L9.76514 30.3003C10.0463 30.338 10.3638 30.2624 10.7384 30.0539C11.5246 29.6183 19.8576 25.0088 25.5133 21.8608L21.7495 18.0667Z" fill="#F43249"/>
<path d="M21.7497 18.0664L25.513 14.2353C25.513 14.2353 11.5815 6.53471 10.7384 6.08032C10.4212 5.88926 10.0653 5.83279 9.74689 5.88926L21.7497 18.0664Z" fill="#00EE76"/>
<path d="M21.7497 18.0666L9.74671 5.88965C9.25955 6.00367 8.84784 6.43956 8.84784 7.33068V28.8586C8.84784 29.6746 9.16646 30.2624 9.76517 30.3188L21.7495 18.0663L21.7497 18.0666Z" fill="#00D3FF"/>
</g>
<defs>
<clipPath id="clip0_0_86">
<rect width="121" height="36" fill="white"/>
</clipPath>
</defs>
</svg>

<svg width="121" height="36" viewBox="0 0 121 36" fill="none" xmlns="http://www.w3.org/2000/svg"><g clip-path="url(#clip0_0_86)"><path d="M0 4.8C0 2.149 2.141 0 4.783 0h111.434C118.859 0 121 2.149 121 4.8v26.4c0 2.651-2.141 4.8-4.783 4.8H4.783C2.14 36 0 33.851 0 31.2V4.8z" fill="#000"/><path fill-rule="evenodd" clip-rule="evenodd" d="M0 31.2V4.8C0 2.149 2.141 0 4.783 0h111.434C118.859 0 121 2.149 121 4.8v26.4c0 2.651-2.141 4.8-4.783 4.8H4.783C2.14 36 0 33.851 0 31.2zm.717 0V4.8c0-2.253 1.82-4.08 4.066-4.08h111.434a4.073 4.073 0 014.066 4.08v26.4c0 2.253-1.82 4.08-4.066 4.08H4.783A4.073 4.073 0 01.717 31.2z" fill="#fff" fill-opacity=".3"/><path d="M61.31 19.558c-2.154 0-3.933 1.687-3.933 4.001 0 2.296 1.76 4.002 3.933 4.002 2.172 0 3.932-1.688 3.932-4.002s-1.76-4.001-3.932-4.001zm0 6.41c-1.18 0-2.21-1.005-2.21-2.427 0-1.44 1.03-2.427 2.21-2.427 1.179 0 2.209.986 2.209 2.427 0 1.422-1.03 2.428-2.21 2.428zm-8.558-6.41c-2.172 0-3.933 1.687-3.933 4.001 0 2.296 1.76 4.002 3.933 4.002 2.172 0 3.932-1.688 3.932-4.002s-1.76-4.001-3.932-4.001zm0 6.41c-1.18 0-2.21-1.005-2.21-2.427 0-1.44 1.03-2.427 2.21-2.427s2.21.986 2.21 2.427c0 1.422-1.013 2.428-2.21 2.428zm-10.168-5.177v1.687h3.97c-.113.948-.43 1.65-.9 2.125-.58.587-1.479 1.233-3.07 1.233-2.454 0-4.344-2.01-4.344-4.495 0-2.485 1.891-4.533 4.344-4.533 1.329 0 2.284.53 2.996 1.214l1.18-1.195c-.994-.967-2.323-1.707-4.176-1.707-3.353 0-6.162 2.788-6.162 6.183s2.81 6.183 6.162 6.183c1.816 0 3.165-.607 4.25-1.745 1.105-1.12 1.442-2.694 1.442-3.965a5.91 5.91 0 00-.093-1.062l-5.6.077zm41.608 1.308c-.318-.892-1.329-2.541-3.352-2.541-2.023 0-3.69 1.612-3.69 4.001 0 2.238 1.667 4.002 3.877 4.002 1.798 0 2.828-1.119 3.258-1.764l-1.328-.91c-.45.664-1.05 1.1-1.93 1.1-.88 0-1.497-.399-1.891-1.214l5.224-2.22-.168-.454zm-5.318 1.347c-.037-1.537 1.18-2.333 2.04-2.333.694 0 1.255.342 1.461.854l-3.5 1.48zm-4.251 3.85h1.723V15.575h-1.723v11.721zm-2.808-6.847h-.056c-.393-.474-1.123-.891-2.06-.891-1.966 0-3.745 1.764-3.745 4.001 0 2.238 1.797 3.983 3.745 3.983.936 0 1.666-.417 2.06-.91h.056v.569c0 1.537-.806 2.351-2.097 2.351-1.05 0-1.705-.777-1.967-1.422l-1.497.645c.43 1.062 1.573 2.37 3.463 2.37 2.023 0 3.727-1.213 3.727-4.153v-7.188h-1.63v.645zm-1.966 5.52c-1.18 0-2.172-1.006-2.172-2.409 0-1.402.993-2.427 2.172-2.427 1.161 0 2.097 1.025 2.097 2.427 0 1.384-.937 2.409-2.097 2.409zm22.377-10.394h-4.12v11.721h1.723v-4.438h2.397c1.91 0 3.782-1.404 3.782-3.642 0-2.237-1.872-3.641-3.782-3.641zm.055 5.652h-2.434v-4.021h2.434c1.274 0 2.023 1.08 2.023 2.01-.018.91-.748 2.011-2.023 2.011zm10.6-1.688c-1.236 0-2.528.55-3.052 1.802l1.517.645c.337-.645.936-.854 1.573-.854.899 0 1.798.55 1.816 1.517v.114c-.318-.19-.973-.456-1.797-.456-1.648 0-3.315.93-3.315 2.637 0 1.575 1.348 2.58 2.846 2.58 1.162 0 1.798-.532 2.191-1.157h.056v.91h1.666v-4.495c-.018-2.067-1.535-3.243-3.501-3.243zm-.206 6.41c-.562 0-1.349-.284-1.349-.985 0-.91.974-1.252 1.817-1.252.748 0 1.104.17 1.573.398a2.082 2.082 0 01-2.041 1.84zm9.718-6.144l-1.966 5.064h-.056l-2.04-5.064h-1.854l3.071 7.093-1.742 3.964h1.798l4.699-11.057h-1.91zm-15.43 7.491h1.724V15.575h-1.723v11.721zM41.629 10.081v1.74h-.717V10.8h-3.294v1.021h-.716v-1.74h.535c.179-.25.31-.612.395-1.082.085-.475.128-.99.128-1.546V5.99h3.14v4.092h.529zm-1.28 0V6.708h-1.646v.873c0 .502-.04.968-.12 1.398a3.89 3.89 0 01-.349 1.102h2.116zm4.321.826a2.48 2.48 0 01-1.266-.329 2.445 2.445 0 01-.898-.914 2.569 2.569 0 01-.321-1.27c0-.461.107-.882.321-1.263a2.445 2.445 0 012.163-1.25 2.443 2.443 0 012.156 1.25c.219.38.328.802.328 1.263 0 .462-.11.885-.328 1.27a2.39 2.39 0 01-.89.914c-.38.22-.802.33-1.266.33zm0-.719c.316 0 .606-.076.87-.228.263-.152.47-.363.622-.632.152-.273.228-.584.228-.934 0-.35-.076-.658-.228-.927a1.644 1.644 0 00-.623-.639 1.708 1.708 0 00-.87-.228 1.694 1.694 0 00-1.5.867 1.855 1.855 0 00-.228.927c0 .35.076.66.228.934a1.708 1.708 0 001.5.86zm5.538.719c-.465 0-.889-.11-1.272-.329a2.377 2.377 0 01-.904-.907 2.54 2.54 0 01-.328-1.277c0-.466.109-.891.328-1.277a2.38 2.38 0 01.904-.907c.383-.22.807-.33 1.272-.33.361 0 .69.068.984.202.299.135.563.33.79.585l-.535.518a1.612 1.612 0 00-.55-.437c-.2-.099-.43-.148-.69-.148-.32 0-.615.074-.883.222a1.641 1.641 0 00-.63.631 1.837 1.837 0 00-.234.941c0 .359.078.674.235.948.156.268.365.477.629.625.268.147.563.221.884.221.535 0 .99-.224 1.366-.672l.542.524a2.445 2.445 0 01-1.908.867zm3.716-4.199h-1.339v-.72h3.428v.72h-1.339V10.8h-.75V6.708zm3.331 4.2a.931.931 0 01-.422-.088v-.732a.85.85 0 00.402.12c.12 0 .216-.022.288-.066a.632.632 0 00.194-.27l.167-.349-1.593-3.534h.837l1.118 2.667h.04L59.41 5.99h.837l-1.835 4.045c-.134.3-.297.522-.489.665-.187.14-.41.209-.67.209zm3.643-4.919h3.569V10.8h-.75V6.708h-2.07V10.8h-.75V5.989zm4.662 0h.75v1.995h2.223V5.99h.743v4.81h-.743V8.697H66.31V10.8h-.75V5.989zm6.99 4.918a2.48 2.48 0 01-1.266-.329 2.446 2.446 0 01-.897-.914 2.569 2.569 0 01-.321-1.27c0-.461.107-.882.321-1.263a2.446 2.446 0 012.163-1.25 2.443 2.443 0 012.156 1.25c.219.38.328.802.328 1.263 0 .462-.11.885-.328 1.27a2.39 2.39 0 01-.89.914c-.38.22-.802.33-1.266.33zm0-.719c.317 0 .607-.076.87-.228.264-.152.471-.363.623-.632a1.89 1.89 0 00.228-.934c0-.35-.076-.658-.228-.927a1.641 1.641 0 00-.623-.639 1.706 1.706 0 00-.87-.228 1.694 1.694 0 00-1.5.867 1.855 1.855 0 00-.228.927c0 .35.077.66.228.934a1.708 1.708 0 001.5.86zm4.91-4.199h1.802c.254 0 .488.056.703.168.218.112.392.266.522.463s.194.415.194.652a1.104 1.104 0 01-.643 1.015v.04c.241.085.435.226.583.423.151.198.227.428.227.693 0 .264-.069.5-.207.705a1.374 1.374 0 01-.55.484 1.674 1.674 0 01-.75.168h-1.88V5.989zm1.768 2.016a.683.683 0 00.516-.202.638.638 0 00.006-.92.644.644 0 00-.495-.202H78.21v1.324h1.018zm.114 2.096a.706.706 0 00.542-.215.695.695 0 00-.007-.994c-.138-.144-.325-.215-.562-.215H78.21V10.1h1.132z" fill="#fff"/><path d="M25.513 21.86c2.865-1.594 5.037-2.808 5.225-2.902.598-.323 1.217-1.176 0-1.84-.394-.208-2.51-1.384-5.225-2.901l-3.763 3.85 3.763 3.793z" fill="#FFD900"/><path d="M21.75 18.067L9.765 30.3c.281.038.599-.038.973-.246.787-.436 9.12-5.045 14.775-8.193l-3.764-3.794z" fill="#F43249"/><path d="M21.75 18.066l3.763-3.83S11.581 6.534 10.738 6.08c-.317-.19-.673-.247-.991-.19L21.75 18.065z" fill="#00EE76"/><path d="M21.75 18.067L9.747 5.89c-.487.114-.9.55-.9 1.44v21.53c0 .816.32 1.403.918 1.46L21.75 18.066z" fill="#00D3FF"/></g><defs><clipPath id="clip0_0_86"><path fill="#fff" d="M0 0h121v36H0z"/></clipPath></defs></svg>
